X: 37289
T: Skipton Road
R: polka
M: 2/4
K: Dmajor
d/e/|:fd ed|fA A/B/d|e>d e>d|fa fe|
fd ed|fA A/B/d|e>d e>f|ed d2:|
d/f/a ag/a/|ea da|=cg g/f/e/d/|=ce Ae|
d/f/a ag/a/|ea da|=c>d e>f|ed d2:|

